X:1
T:“Today”
T:“Today”
T:May Whittle Moody
T:George Campgell Morgan, 1903
T:Public Domain Courtesy of the Cyber Hymnal™
T:Public Domain Courtesy of the Cyber Hymnal™
C:May Whittle Moody
Z:Public Domain
Z:Courtesy of the Cyber Hymnal™
%%score ( 1 2 ) 3
L:1/8
Q:1/4=100
M:4/4
K:Eb
V:1 treble 
V:2 treble 
V:3 bass 
V:1
 [GB]2 | [GB]3 [FB] [EA][EA] [EG]>[B,E] | [EG]6 [EG]2 | [EF][EF][EG][EA] E2 [DF]2 | [EG]6 [EG]2 | %5
w: 1.~“To-|day”! O bless- èd word of|hope, And|la- den still with Heav’n’s own|breath; The|
w: 2.~Light|falls a- round the ru- ined|soul, The|wind of God blows with new|lust! Fling|
w: 3.~Then|day shall ne- ver end in|night, But|night be merged in per- fect|day; And|
w: 4.~But|if thou hard- en still thy|heart, To-|day will van- ish in- to|night, The|
w: 5.~Oh,|bless- èd Mas- ter of “To-|day,” To|Thee I yield my stub- born|will; Thou|
 F3 F [EF][EF][EG][E=A] | [DB]6 [^CG]2 | [DF]3 [DG] [E=A][DB] [Ec]>[DB] | [DB]6 || %9
w: night is past— and has not|come, Be-|tween the shades life con- quers|death.|
w: back the shut- ters! Swing the|door! An-|swer God’s breath up- on thy|dust.|
w: all the forc- es of God’s|life Con-|trol thy life with might- y|sway.|
w: wind of God no lon- ger|blow, Life|close in dark e- clipse of|light.|
w: Sun of health, re- new my|life; And|with Thy- self my be- ing|fill.|
"^Refrain" [AB]2 |!ff! [GB]3 [GB] [^F=A][FA] [Fc]>[Fc] | [GB]6!pp! [EG]2 | %12
w: |||
w: |||
w: “To-|day,” if ye will hear His|voice, To-|
w: |||
w: |||
 [EG]3 [EG] [CF][CF] [FA]>[FA] | [DG]6 z2 |!ff! [Ec]3 [EG] [EG]2 [E=A]2 | [EB]6 z2 | %16
w: ||||
w: ||||
w: day, if ye will hear His|voice,|Hard- en not your|heart,|
w: ||||
w: ||||
!pp! [CE]3 C C2 [B,D]2 | [B,E]6 |] %18
w: ||
w: ||
w: Hard- en not your|heart.|
w: ||
w: ||
V:2
 x2 | x8 | x8 | x4 E2 x2 | x8 | F3 F x4 | x8 | x8 | x6 || x2 | x8 | x8 | x8 | x8 | x8 | x8 | %16
 x3 C C2 x2 | x6 |] %18
V:3
 [E,E]2 | [E,E]3 [E,D] [E,C][E,C] [E,B,]>[E,G,] | [E,B,]6 [E,B,]2 | %3
 [A,C][A,C][G,C][F,C] [B,,G,]2 [B,,B,]2 | [E,B,]6 [E,B,]2 | %5
 [D,B,]3 [D,B,] [C,=A,][C,A,][F,B,][F,C] | [G,B,]6 [=E,B,]2 | %7
 [F,B,]3 [F,B,] [F,C][F,B,] [F,=A,]>[B,,B,] | [B,,B,]6 || [B,,D]2 | %10
 [E,E]3 [E,B,] [E,C][E,C] [E,=A,]>[E,A,] | [E,B,]6 [E,B,]2 | %12
 [C,C]3 [C,C] [F,A,][F,A,] [D,C]>[D,C] | [G,=B,]6 z2 | [C,G,]3 [C,G,] [C,G,]2 [_C,^F,]2 | %15
 [B,,G,]6 z2 | [F,,A,]3 [F,,A,] [F,,A,]2 [B,,A,]2 | [E,G,]6 |] %18

